assets/images/editor/paragraph.svg

<svg viewBox="0 0 24 24" xmlns="http://www.w3.org/2000/svg"><path d="m22.5.248h-15.272a6.977 6.977 0 1 0 0 13.954h2.318a.25.25 0 0 1 .25.25v8.048a1.25 1.25 0 0 0 2.5 0v-19.5a.25.25 0 0 1 .25-.25h3.682a.25.25 0 0 1 .25.25v19.5a1.25 1.25 0 0 0 2.5 0v-19.5a.249.249 0 0 1 .25-.25h3.272a1.25 1.25 0 0 0 0-2.5zm-12.7 11.204a.25.25 0 0 1 -.25.25h-2.322a4.477 4.477 0 1 1 0-8.954h2.318a.25.25 0 0 1 .254.252z"/></svg>

<svg xmlns="http://www.w3.org/2000/svg" viewBox="0 0 24 24"><title>paragraph</title><path d="M22.5.248H7.228a6.977,6.977,0,1,0,0,13.954H9.546a.25.25,0,0,1,.25.25V22.5a1.25,1.25,0,0,0,2.5,0V3a.25.25,0,0,1,.25-.25h3.682a.25.25,0,0,1,.25.25V22.5a1.25,1.25,0,0,0,2.5,0V3a.249.249,0,0,1,.25-.25H22.5a1.25,1.25,0,0,0,0-2.5ZM9.8,11.452a.25.25,0,0,1-.25.25H7.228a4.477,4.477,0,1,1,0-8.954H9.546A.25.25,0,0,1,9.8,3Z"/></svg>
